X:1
T:Säbb Johns gånglåt - Rättvik
R:polka
C:etter paul Bäckström - uppl.
D:L\aatar f\"or Glada F\"otter
M:4/4
L:1/16
Q:1/2=46
K:G
P:A
| D2 \
|: "G"B,CB,A, G,B,DG B2(cB) A2G2| "C"C3 (E GE)Gc {c}e2ed c2B2 \
| "D"A3G F2Ad f4 {f}f2fe | d2ed c2dc "G"(Bc)dB G2GD\
| "G"B,CB,A, G,B,DG B2(cB) A2G2| "C"C3 (E GE)Gc {c}e2ed c2B2 \
| "D"A3G F2Ad f4 {f}f2fe | d2ed DFAF "G"G6 D2:|
P:B
|: "G" ({D}G3)B d2g2 ({g}b4) ({ba}b2b2|(ab)af g2f2 "D"c6 B2| A3G F2Ad f4 ({ff}f2)fe\
| d2ed c2dc "G"(Bc)dB G2D2|({D}G3)B d2g2 ({g}b4) ({ba}b2b2|(ab)af g2f2 "D"c6 B2\
| A3G F2Ad f4 ({ff}f2)fe |1 d2ed (DF)(AF) "G" G6 D2:|2 d2ed (DF)(AF) "G" G8||

